X:1
T:Lady Boswell of Auchenleck
T:Lady Boswell of Auchenleck
T:Nathaniel Gow (1763-1822)
C:Nathaniel Gow (1763-1822)
L:1/8
M:4/4
K:Bb
V:1 treble 
V:1
 (B,FD).B (G/F/E/D/) C2 | BFDd BFBd | f>d Bd BD C2 | B,D FB/c/ d>B, D<B | (B,FD).B (G/F/E/D/) C2 | %5
 (B,FD).d BF Bd | f>d Bd BD C>D | B,D FB/c/ (d/c/B/A/) B>g || (fb) (df) (e/d/c/B/) c2 | fbdb Bbdb | %10
 fb dg (e/d/c/B/) c>d | .B(c/d/) G>B (F/G/)(E/F/) D>g | fbdf (e/d/c/B/) c>g | fbd(g f)(de)(c | %14
 d)(Bc)A BD C2 | B,D FB/c/ d>B, D<B || %16

